X:45
T: Der Nachtjaeger
N: Q0133A
O: Mitteleuropa, Deutschland (DDR) , Sachsen - Anhalt
N: Anhaengsel an der ersten Zeile. Dritte Zile = Refrain auf
N: sinnfreie Silben. Eingeklammerte Toene kodiert.
R: Ballade, Jagd, Flucht, Vergewaltigung, Tod
M: 4/4
L: 1/8
K: G
D2 | G2G2G2AA | B2A2G2g2 | ddddd2
gd | dcccA2cA | G2BAG2
cB | BAAAAAcA | GGBAG2BA | G2BAG2
